svgs/duotone/flower.svg

<svg xmlns="http://www.w3.org/2000/svg" viewBox="0 0 512 512"><!-- Font Awesome Pro 6.0.0-alpha2 by @fontawesome - https://fontawesome.com License - https://fontawesome.com/license (Commercial License) --><defs><style>.fa-secondary{opacity:.4}</style></defs><path d="M480 160C480 89.25 422.75 32 352 32C313.5 32 279.5 49.25 256 76.125C232.5 49.25 198.5 32 160 32C89.25 32 32 89.25 32 160C32 198.5 49.25 232.5 76.125 256C49.25 279.5 32 313.5 32 352C32 422.75 89.25 480 160 480C198.5 480 232.5 462.75 256 435.875C279.5 462.75 313.5 480 352 480C422.75 480 480 422.75 480 352C480 313.5 462.75 279.5 435.875 256C462.75 232.5 480 198.5 480 160ZM256 336C211.875 336 176 300.125 176 256S211.875 176 256 176S336 211.875 336 256S300.125 336 256 336Z" class="fa-secondary"/><path d="M256 336C211.875 336 176 300.125 176 256S211.875 176 256 176S336 211.875 336 256S300.125 336 256 336Z" class="fa-primary"/></svg>

<svg xmlns="http://www.w3.org/2000/svg" viewBox="0 0 512 512"><!--! Font Awesome Pro 6.3.0 by @fontawesome - https://fontawesome.com License - https://fontawesome.com/license (Commercial License) Copyright 2023 Fonticons, Inc. --><defs><style>.fa-secondary{opacity:.4}</style></defs><path class="fa-primary" d="M256 336c-44.12 0-80-35.88-80-80S211.9 176 256 176s80 35.88 80 80S300.1 336 256 336z"/><path class="fa-secondary" d="M480 160c0-70.75-57.25-128-128-128c-38.5 0-72.5 17.25-96 44.12C232.5 49.25 198.5 32 160 32C89.25 32 32 89.25 32 160c0 38.5 17.25 72.5 44.13 96C49.25 279.5 32 313.5 32 352c0 70.75 57.25 128 128 128c38.5 0 72.5-17.25 96-44.13C279.5 462.8 313.5 480 352 480c70.75 0 128-57.25 128-128c0-38.5-17.25-72.5-44.13-96C462.8 232.5 480 198.5 480 160zM256 336c-44.12 0-80-35.88-80-80S211.9 176 256 176s80 35.88 80 80S300.1 336 256 336z"/></svg>
